packages/foundations/assets/icons/functional/images/technology/qr_code_16.svg

<svg width="16" height="16" viewBox="0 0 16 16" fill="none" xmlns="http://www.w3.org/2000/svg">
<g clip-path="url(#clip0_187_623)">
<path fill-rule="evenodd" clip-rule="evenodd" d="M5.73394 8.80001C6.54259 8.79918 7.19887 9.45425 7.19998 10.2633V12.9362C7.19887 13.7453 6.54267 14.4006 5.73394 14.4H3.06302C2.25534 14.3992 1.6008 13.7443 1.59998 12.9362V10.2633C1.60108 9.45542 2.25554 8.80083 3.06302 8.80001H5.73394ZM5.59998 10.4H3.19998V12.8H5.59998V10.4ZM12.9363 1.60001C13.7443 1.60083 14.3991 2.25561 14.4 3.06357V5.73544C14.3994 6.54368 13.7446 7.1989 12.9363 7.20001H10.2637C9.45564 7.19918 8.8008 6.5444 8.79998 5.73644V3.06357C8.8008 2.25561 9.45564 1.60083 10.2637 1.60001H12.9363ZM12.8 3.20001H10.4V5.60001H12.8V3.20001ZM5.73628 1.60001C6.54412 1.60083 7.19887 2.25542 7.19998 3.06333V5.73668C7.1986 6.54448 6.54401 7.19891 5.73628 7.20001H3.06367C2.25594 7.19891 1.60135 6.54448 1.59998 5.73668V3.06333C1.60108 2.25542 2.25583 1.60083 3.06367 1.60001H5.73628ZM5.59998 3.20001H3.19998V5.60001H5.59998V3.20001ZM9.59998 12C9.15815 12 8.79998 11.6418 8.79998 11.2V9.60001C8.79998 9.15818 9.15815 8.80001 9.59998 8.80001H11.2C11.6418 8.80001 12 9.15818 12 9.60001V11.2H13.6C14.0418 11.2 14.4 11.5582 14.4 12V13.6C14.4 14.0418 14.0418 14.4 13.6 14.4H12C11.5581 14.4 11.2 14.0418 11.2 13.6V12H9.59998Z" fill="#1A1C1F"/>
</g>
<defs>
<clipPath id="clip0_187_623">
<rect width="16" height="16" fill="white"/>
</clipPath>
</defs>
</svg>

<svg xmlns="http://www.w3.org/2000/svg" width="16" height="16" fill="none"><g clip-path="url(#a)"><path fill="#1A1C1F" fill-rule="evenodd" d="M5.734 8.8c.809 0 1.465.654 1.466 1.463v2.673A1.465 1.465 0 0 1 5.734 14.4H3.063A1.465 1.465 0 0 1 1.6 12.936v-2.673A1.465 1.465 0 0 1 3.063 8.8zM5.6 10.4H3.2v2.4h2.4zm7.336-8.8c.808 0 1.463.656 1.464 1.464v2.671c0 .809-.655 1.464-1.464 1.465h-2.672A1.465 1.465 0 0 1 8.8 5.736V3.064c0-.808.656-1.463 1.464-1.464zM12.8 3.2h-2.4v2.4h2.4zM5.736 1.6c.808 0 1.463.655 1.464 1.463v2.674A1.466 1.466 0 0 1 5.736 7.2H3.064A1.466 1.466 0 0 1 1.6 5.737V3.063A1.465 1.465 0 0 1 3.064 1.6zM5.6 3.2H3.2v2.4h2.4zm4 8.8a.8.8 0 0 1-.8-.8V9.6a.8.8 0 0 1 .8-.8h1.6a.8.8 0 0 1 .8.8v1.6h1.6a.8.8 0 0 1 .8.8v1.6a.8.8 0 0 1-.8.8H12a.8.8 0 0 1-.8-.8V12z" clip-rule="evenodd"/></g><defs><clipPath id="a"><path fill="#fff" d="M0 0h16v16H0z"/></clipPath></defs></svg>
